22x22/actions/edit-clear-rtl.svg

<svg xmlns="http://www.w3.org/2000/svg" width="22" height="22"><defs><style id="current-color-scheme" type="text/css"></style></defs><path d="m11 2 5 6-5 6H0V2zM9 5H8c-.28 0-.53.11-.71.29L6 6.59l-1.29-1.3A.997.997 0 0 0 4 5H3v1c0 .28.11.53.29.71L4.59 8l-1.3 1.29c-.18.18-.29.43-.29.71v1h1c.28 0 .53-.11.71-.29L6 9.41l1.29 1.3c.18.18.43.29.71.29h1v-1c0-.28-.11-.53-.29-.71L7.41 8l1.3-1.29C8.89 6.53 9 6.28 9 6z" style="fill:currentColor;color:#323a41" transform="translate(3 3)"/></svg>

<svg xmlns="http://www.w3.org/2000/svg" width="22" height="22" version="1.1">
 <defs>
  <style id="current-color-scheme" type="text/css">
   .ColorScheme-Text { color:#323a41; } .ColorScheme-Highlight { color:#4285f4; } .ColorScheme-NeutralText { color:#ff9800; } .ColorScheme-PositiveText { color:#4caf50; } .ColorScheme-NegativeText { color:#f44336; }
  </style>
 </defs>
 <g transform="matrix(1,0,0,1,3,3)">
  <path class="ColorScheme-Text" d="M 11,2 16,8 11,14 H 0 V 2 Z M 9,5 H 8 C 7.72,5 7.47,5.11 7.29,5.29 L 6,6.59 4.71,5.29 C 4.53,5.11 4.28,5 4,5 H 3 V 6 C 3,6.28 3.11,6.53 3.29,6.71 L 4.59,8 3.29,9.29 C 3.11,9.47 3,9.72 3,10 V 11 H 4 C 4.28,11 4.53,10.89 4.71,10.71 L 6,9.41 7.29,10.71 C 7.47,10.89 7.72,11 8,11 H 9 V 10 C 9,9.72 8.89,9.47 8.71,9.29 L 7.41,8 8.71,6.71 C 8.89,6.53 9,6.28 9,6 Z" style="fill:currentColor"/>
 </g>
</svg>
